src/assets/img/Icon/Search.svg

<?xml version="1.0" encoding="UTF-8"?>
<svg width="233px" height="234px" viewBox="0 0 233 234" version="1.1" xmlns="http://www.w3.org/2000/svg" xmlns:xlink="http://www.w3.org/1999/xlink">
    <!-- Generator: Sketch 57.1 (83088) - https://sketch.com -->
    <title>Icon / Search</title>
    <desc>Created with Sketch.</desc>
    <g id="Icon-/-Search" stroke="none" stroke-width="1" fill="none" fill-rule="evenodd">
        <path d="M99.8742485,0 C155.033273,0 199.748497,44.7418929 199.748497,99.9338148 C199.748497,121.872604 192.683212,142.160223 180.705144,158.642886 L228.233138,206.20012 C234.590064,212.560838 234.590064,222.869577 228.233138,229.230295 C221.88111,235.586111 211.579366,235.589182 205.22355,229.237154 C205.221263,229.234868 205.218976,229.232582 205.216691,229.230295 L157.547196,181.531939 C141.257117,193.080365 121.357836,199.86763 99.8742485,199.86763 C44.7152242,199.86763 0,155.125737 0,99.9338148 C0,44.7418929 44.7152242,0 99.8742485,0 Z M99.8742485,31.9788207 C62.366112,31.9788207 31.9597595,62.4033079 31.9597595,99.9338148 C31.9597595,137.464322 62.366112,167.888809 99.8742485,167.888809 C137.382385,167.888809 167.788738,137.464322 167.788738,99.9338148 C167.788738,62.4033079 137.382385,31.9788207 99.8742485,31.9788207 Z" id="Combined-Shape" fill="#FFFFFF" fill-rule="nonzero"></path>
    </g>
</svg>

<svg width="233" height="234" xmlns="http://www.w3.org/2000/svg"><path d="M99.874 0c55.16 0 99.874 44.742 99.874 99.934 0 21.939-7.065 42.226-19.043 58.709l47.528 47.557c6.357 6.36 6.357 16.67 0 23.03-6.352 6.356-16.654 6.36-23.01.007a14.785 14.785 0 01-.006-.007l-47.67-47.698c-16.29 11.548-36.19 18.336-57.673 18.336C44.715 199.868 0 155.126 0 99.934S44.715 0 99.874 0zm0 31.979c-37.508 0-67.914 30.424-67.914 67.955 0 37.53 30.406 67.955 67.914 67.955s67.915-30.425 67.915-67.955-30.407-67.955-67.915-67.955z" fill="#FFF"/></svg>
